X:3
T:Avant-garde Study 003
C:Generated
M:11/8
L:1/8
Q:1/8=91
K:Floc
D,2 ^G, G, ^g2 D ^G3 ^c | G,2 ^C D2 G, ^G ^d2 D,2 | ^D2 A,2 ^d D2 g2 ^f ^c | ^g g D3 ^C2 d ^d2 e | f3 b2 C G ^G2 G C | G,3 C B2 f e3 A | E,3 f ^A3 b2 e a | ^d E3 B3 C, ^c3 | C3 g2 ^g3 d3 | ^d3 ^G, A E F2 ^A ^d d | A E,3 F3 E3 ^d | e3 ^d3 E a ^D, ^A2 | e2 ^D2 ^G d A,2 ^g ^C,2 | ^g3 ^d2 a2 e ^a3 | ^D D,2 ^D,2 d ^G3 A, ^g | d ^D2 ^a2 E3 ^D3 |
